public/illustrations/_france.svg

<svg width="373" height="337" viewBox="0 0 373 337" fill="none" xmlns="http://www.w3.org/2000/svg">
<path d="M302.984 173.461C304.272 174.14 305.561 174.537 306.708 175.075C314.452 178.855 318.842 184.83 319.068 193.608C319.238 200.688 319.139 207.767 318.884 214.861C318.389 229.033 324.887 240.063 333.779 250.045C339.754 256.699 340.122 260.225 333.467 266.2C322.254 276.394 309.992 284.903 294.63 287.976C279.268 291.048 263.198 288.613 249.563 280.882C243.249 277.498 236.82 275.53 229.939 277.965C226.711 279.183 223.922 281.094 221.586 283.558C219.235 286.163 217.324 289.052 215.71 292.053C212.312 297.66 207.144 300.761 201.395 303.309C199.583 304.201 197.601 304.541 195.619 304.442C193.637 304.343 191.64 303.833 189.913 302.743C187.902 301.794 186.175 300.421 184.575 299.047C177.17 291.586 167.896 288.981 157.688 288.244C139.381 286.715 121.413 281.774 105.06 273.548C100.897 271.382 97.1594 268.791 93.5348 265.902C89.3438 262.603 88.8483 259.927 90.7172 255.071C92.841 249.351 94.9649 243.772 96.9471 238.066C97.0745 237.359 97.0603 236.792 96.9045 236.084C96.8904 235.376 96.4515 234.824 96.0125 234.272C89.3438 227.787 89.3438 227.929 81.5283 232.502C60.1628 244.933 38.939 257.35 17.5736 269.626C12.5473 272.585 10.1261 271.792 7.45013 266.624C5.66614 263.269 3.88216 259.772 2.23975 256.274C-1.48398 248.997 -0.818491 247.001 6.16173 243.008C28.5041 230.279 50.7049 217.409 73.0614 204.808C75.8507 203.18 76.5161 201.608 76.1622 198.493C72.7924 176.901 79.4328 158.75 95.4887 144.053C96.6072 143.317 97.2868 142.17 97.6833 140.882C98.0797 139.593 97.9098 138.333 97.4426 137.059C94.5117 127.502 89.5138 119.686 80.0558 115.255C74.6047 112.409 69.281 109.294 64.099 105.882C56.4816 101.252 50.7756 94.0311 47.8731 85.4652C47.2643 83.7803 47.2218 82.0813 47.4625 80.2406C47.7032 78.5416 48.5103 76.9558 49.6147 75.5116C57.0055 65.1334 68.12 62.0186 79.7443 62.5849C88.9615 63.0663 97.9665 66.0963 107.085 68.4183C115.212 70.4854 115.778 70.4712 119.983 63.2787C122.022 59.824 123.636 56.1003 125.817 52.9429C129.781 47.1804 134.142 46.076 140.457 49.0351C143.317 50.3802 146.191 52.0084 148.923 53.495C154.375 56.3409 159.316 55.7887 163.889 51.7111C165.687 50.1111 167.344 48.3697 168.859 46.345C174.89 38.2604 182.664 31.705 191.612 27.0893C201.665 21.4542 209.961 13.1856 215.667 3.2604C217.975 -0.619056 222.209 -1.15707 225.706 2.29762C232.389 9.20702 239.213 15.9889 245.202 23.4788C254.42 35.2871 267.092 43.8955 281.364 48.3555C291.36 51.5128 300.69 56.6525 310.417 60.5319C322.296 65.3317 334.303 69.8624 346.295 74.0958C353.006 76.4744 354.762 78.839 352.539 85.8333C347.555 101.677 342.557 117.662 337.432 133.505C335.195 140.358 330.069 145.016 324.349 148.697C315.005 154.729 307.571 163.139 302.715 173.163L302.998 173.447L302.984 173.461ZM106.532 241.479C104.805 246.193 103.502 250.753 101.492 255.057C100.288 257.775 101.025 259.177 103.333 260.678C119.006 270.49 136.266 275.162 154.318 277.824C161.992 278.914 169.949 279.849 177.227 282.355C182.649 284.209 187.152 288.627 191.909 292.053C194.514 294.12 197.077 295.041 199.852 292.704C202.91 290.227 205.671 287.466 208.432 284.705C210.358 282.255 212.142 279.792 213.629 277.073C217.451 271.452 222.903 268.635 229.67 267.332C237.854 265.86 246.236 267.205 253.429 271.424C270.943 281.193 288.811 281.59 306.58 272.939C313.999 269.357 320.512 263.524 327.747 258.398C311.196 242.102 306.481 223.087 309.058 201.495C309.27 198.38 309.058 195.407 308.548 192.306C307.869 187.648 304.824 184.887 300.407 183.584C298.835 183.06 297.136 182.961 295.423 182.579C290.156 181.29 288.216 177.369 290.935 172.781C298.411 160.138 306.184 147.763 319.436 139.933C321.942 138.461 324.165 136.564 325.808 134.114C327.45 131.806 328.654 129.088 329.291 126.242C331.216 117.973 333.977 109.691 336.611 101.563C338.451 95.716 340.575 89.9959 342.685 83.9927C336.965 82.0105 331.273 80.453 325.822 78.1735C311.224 72.0145 296.612 65.5865 282.015 59.2859C275.006 56.341 267.856 53.9765 261.117 50.5926C249.365 44.7875 241.464 34.65 233.281 24.7956C229.784 20.633 225.862 16.9093 222.52 13.4546C215.469 20.1375 209.834 27.4999 202.443 31.9315C190.861 39.0108 180.441 46.9255 172.059 57.6152C167.797 63.1088 161.624 65.0909 154.53 64.9918C148.725 64.9918 143.982 61.9902 139.097 59.4275C136.039 57.804 133.651 58.5733 131.933 61.7354C129.356 66.4785 126.355 70.9384 123.197 75.271C121.965 77.1399 120.026 78.6124 117.916 79.3628C115.806 80.1132 113.399 80.184 111.261 79.5327C104.564 77.862 97.9947 75.8939 91.2977 73.9401C82.1653 71.1933 72.41 71.8587 63.8724 75.894C57.5718 78.5982 56.0993 82.4635 60.3469 87.7305C63.4193 91.6241 67.1855 95.0647 71.2207 97.9389C76.1196 101.365 81.1459 104.353 86.4554 106.915C93.195 110.285 98.7027 115.538 102.129 122.249C104.21 126.299 106.009 130.504 107.962 134.709C141.448 119.715 170.869 135.417 183.782 154.078C191.116 164.513 194.982 177.17 194.585 189.927C194.189 202.684 189.828 215.115 181.998 225.225C167.585 243.857 138.871 256.6 106.334 241.252L106.49 241.535L106.532 241.479ZM136.181 238.052C163.634 237.373 185.325 215.172 184.66 188.129C184.334 174.962 178.926 162.346 169.496 153.242C160.066 144.124 147.338 139.055 134.029 139.254C127.516 139.409 121.031 140.57 114.858 143.133C108.826 145.696 103.403 149.363 98.7027 154.149C94.1436 158.793 90.4624 164.413 88.0554 170.558C85.6484 176.703 84.5441 183.103 84.5582 189.772C84.714 196.285 86.1581 202.755 88.8483 208.786C91.5384 214.818 95.3612 220.241 100.147 224.658C104.932 229.217 110.539 232.615 116.684 235.008C122.829 237.259 129.37 238.378 135.883 238.081H136.166L136.181 238.052ZM15.3223 259.021L83.4538 219.236L79.7443 212.241L11.3154 251.46L15.1808 259.007H15.3223V259.021Z" fill="#102185"/>
<path d="M372.786 304.159C371.554 311.833 371.045 319.776 369.119 327.478C366.655 336.879 358.089 339.655 350.019 334.034C337.191 325 331.499 312.399 333.524 297.051C334.119 292.506 337.843 288.16 340.717 284.266C344.964 278.348 349.637 272.713 354.465 267.219C356.249 265.194 358.486 263.722 360.865 262.816C361.431 262.66 362.125 262.504 362.847 262.632C363.555 262.618 364.121 262.886 364.702 263.297C365.282 263.708 365.707 264.118 366.004 264.685C366.301 265.251 366.599 265.945 366.613 266.511C368.765 278.928 370.62 291.345 372.645 304.173H372.786V304.159ZM357.764 326.614C363.71 321.078 361.912 287.99 359.208 281.689C356.858 283.728 353.941 286.206 351.024 288.4C343.945 293.95 341.566 300.959 344.186 309.525C345.12 313.178 346.904 316.533 349.24 319.45C351.576 322.367 354.479 324.845 357.92 326.6H357.778L357.764 326.614Z" fill="#102185"/>
<path d="M198.479 139.777C197.615 138.956 195.604 137.866 194.854 136.322C193.056 132.117 191.385 127.771 189.856 123.41C188.327 119.049 185.722 116.43 181.035 115.976C179.761 116.005 178.472 115.608 177.326 115.07C175.74 113.98 173.715 112.465 173.545 110.922C173.517 109.931 173.644 108.94 174.041 108.076C174.451 107.212 174.989 106.349 175.825 105.768C183.074 101.195 185.467 94.6253 185.255 86.4133C185.056 78.2013 186.826 81.1321 188.369 80.6649C190.337 79.9145 193.198 81.118 195.35 82.0525C196.638 82.7321 197.388 84.5444 198.139 86.0877C201.254 91.8219 205.19 96.3952 212.298 97.3579C215.143 97.7119 217.862 98.7738 218.641 102.016C219.419 105.258 217.494 107.425 215.285 109.322C207.795 115.594 203.59 123.495 204.128 133.533C204.213 136.79 202.84 138.942 198.337 139.763H198.479V139.777ZM189.474 107.425L191.003 106.108L198.281 114.136L203.746 106.207L194.075 98.8021C192.589 101.818 191.102 104.678 189.615 107.552L189.474 107.411V107.425Z" fill="#102185"/>
<path d="M216.984 229.402L217.14 235.773C217.211 238.888 216.574 241.592 213.048 242.102C210.089 242.597 207.767 240.53 206.974 236.863C206.804 235.73 206.917 234.598 206.747 233.465C206.719 232.332 206.705 231.483 206.394 230.364C202.826 229.458 198.578 229.288 198.592 224.035C198.521 221.204 200.475 220.028 205.558 219.193L205.388 212.397C205.572 208.574 207.356 206.252 210.33 206.181C213.303 206.111 215.2 208.192 215.582 212.142C215.781 214.266 215.682 216.39 215.752 218.797C219.717 218.698 223.242 218.33 224.063 222.846C224.701 225.947 222.619 227.702 216.857 229.402H216.998H216.984Z" fill="#102185"/>
<path d="M128.521 99.5813C131.919 99.7795 135.048 100.133 135.43 103.942C135.813 108.176 132.443 109.11 129.356 110.044C129.257 111.602 129.441 113.443 128.762 114.589C127.671 116.175 125.873 118.2 124.33 118.384C123.339 118.271 122.334 117.86 121.612 117.322C120.748 116.77 120.167 115.949 119.714 115.099C118.652 112.154 118.298 109.464 114.999 107.567C111.984 105.938 112.734 101.96 115.665 99.907C116.642 99.1707 117.888 98.4345 118.157 97.4434C118.936 94.7391 120.309 92.9975 123.141 93.0683C126.256 92.9975 127.587 95.362 128.082 98.038C128.082 98.4628 128.394 99.015 128.549 99.7229V99.5813H128.521Z" fill="#102185"/>
<path d="M134.312 225.069C129.356 225.196 124.387 224.46 119.813 222.732C115.099 221.005 110.922 218.414 107.297 214.974C103.673 211.533 100.742 207.484 98.6462 203.01C96.5507 198.535 95.4464 193.594 95.3189 188.653C94.7951 167.698 112.069 149.858 133.576 149.32C155.083 148.782 171.776 164.668 172.427 185.75C172.554 190.847 171.691 195.831 169.822 200.546C167.953 205.261 165.234 209.579 161.638 213.218C158.042 216.857 153.865 219.787 149.249 221.883C144.619 223.837 139.551 224.955 134.453 225.083H134.312V225.069ZM140.952 213.005C139.664 212.467 138.375 212.071 137.229 211.533C131.792 209.112 129.682 204.071 132.669 198.904C133.632 197.459 134.142 195.605 134.1 193.906C134.057 192.065 133.59 190.38 132.556 188.851C130.347 185.368 129.257 181.432 129.158 177.326C129.059 173.22 130.234 169.227 132.273 165.772C133.363 163.762 134.298 161.751 135.657 159.316C128.988 159.061 122.39 161.199 117.109 165.164C116.132 165.617 115.438 166.48 115.042 167.627C114.645 168.633 114.532 169.765 114.971 170.742C115.467 173.418 116.231 175.952 117.152 178.473C121.201 187.577 120.436 196.808 117.406 205.799C116.486 208.517 117.222 209.905 119.672 211.264C126.553 214.775 133.519 215.88 141.094 213.005H140.952ZM152.562 207.2C166.424 195.251 165.05 173.602 149.943 164.073C148.938 163.394 147.083 162.87 146.248 163.309C141.094 166.551 138.092 177.255 141.207 182.975C144.478 189.403 146.191 195.605 142.396 202.344L152.577 207.186L152.562 207.2ZM107.184 181.97L105.485 182.012L107.014 198.266L108.571 198.224C109.492 195.506 109.846 192.674 109.633 189.842C109.421 187.01 108.501 184.349 107.17 181.97H107.184Z" fill="#102185"/>
</svg>

<svg xmlns="http://www.w3.org/2000/svg" width="373" height="337" fill="none" viewBox="0 0 373 337"><path fill="#102185" d="M302.984 173.461c1.288.679 2.577 1.076 3.724 1.614 7.744 3.78 12.134 9.755 12.36 18.533.17 7.08.071 14.159-.184 21.253-.495 14.172 6.003 25.202 14.895 35.184 5.975 6.654 6.343 10.18-.312 16.155-11.213 10.194-23.475 18.703-38.837 21.776-15.362 3.072-31.432.637-45.067-7.094-6.314-3.384-12.743-5.352-19.624-2.917-3.228 1.218-6.017 3.129-8.353 5.593-2.351 2.605-4.262 5.494-5.876 8.495-3.398 5.607-8.566 8.708-14.315 11.256-1.812.892-3.794 1.232-5.776 1.133s-3.979-.609-5.706-1.699c-2.011-.949-3.738-2.322-5.338-3.696-7.405-7.461-16.679-10.066-26.887-10.803-18.307-1.529-36.275-6.47-52.628-14.696-4.163-2.166-7.9-4.757-11.525-7.646-4.191-3.299-4.687-5.975-2.818-10.831 2.124-5.72 4.248-11.299 6.23-17.005a4.7 4.7 0 0 0-.043-1.982c-.014-.708-.453-1.26-.891-1.812-6.67-6.485-6.67-6.343-14.485-1.77-21.365 12.431-42.589 24.848-63.954 37.124-5.027 2.959-7.448 2.166-10.124-3.002-1.784-3.355-3.568-6.852-5.21-10.35-3.724-7.277-3.058-9.273 3.922-13.266 22.342-12.729 44.543-25.599 66.9-38.2 2.789-1.628 3.454-3.2 3.1-6.315-3.37-21.592 3.27-39.743 19.327-54.44 1.118-.736 1.798-1.883 2.194-3.171.397-1.289.227-2.549-.24-3.823-2.931-9.557-7.93-17.373-17.387-21.804a183 183 0 0 1-15.957-9.373c-7.617-4.63-13.323-11.85-16.226-20.417-.609-1.685-.651-3.384-.41-5.224.24-1.7 1.047-3.285 2.152-4.73 7.39-10.378 18.505-13.492 30.13-12.926 9.216.481 18.221 3.511 27.34 5.833 8.127 2.067 8.693 2.053 12.898-5.14 2.039-3.454 3.653-7.178 5.834-10.335 3.964-5.763 8.325-6.867 14.64-3.908 2.86 1.345 5.734 2.973 8.466 4.46 5.452 2.846 10.393 2.294 14.966-1.784 1.798-1.6 3.455-3.341 4.97-5.366a66.2 66.2 0 0 1 22.753-19.256c10.053-5.635 18.349-13.903 24.055-23.829 2.308-3.88 6.542-4.417 10.039-.962 6.683 6.909 13.507 13.69 19.496 21.18 9.218 11.81 21.89 20.417 36.162 24.877 9.996 3.158 19.326 8.298 29.053 12.177a861 861 0 0 0 35.878 13.564c6.711 2.378 8.467 4.743 6.244 11.737-4.984 15.844-9.982 31.829-15.107 47.672-2.237 6.853-7.363 11.511-13.083 15.192a60.3 60.3 0 0 0-21.634 24.466l.283.284zm-196.452 68.018c-1.727 4.714-3.03 9.274-5.04 13.578-1.204 2.718-.467 4.12 1.841 5.621 15.673 9.812 32.933 14.484 50.985 17.146 7.674 1.09 15.631 2.025 22.909 4.531 5.422 1.854 9.925 6.272 14.682 9.698 2.605 2.067 5.168 2.988 7.943.651 3.058-2.477 5.819-5.238 8.58-7.999 1.926-2.45 3.71-4.913 5.197-7.632 3.822-5.621 9.274-8.438 16.041-9.741 8.184-1.472 16.566-.127 23.759 4.092 17.514 9.769 35.382 10.166 53.151 1.515 7.419-3.582 13.932-9.415 21.167-14.541-16.551-16.296-21.266-35.311-18.689-56.903.212-3.115 0-6.088-.51-9.189-.679-4.658-3.724-7.419-8.141-8.722-1.572-.524-3.271-.623-4.984-1.005-5.267-1.289-7.207-5.21-4.488-9.798 7.476-12.643 15.249-25.018 28.501-32.848 2.506-1.472 4.729-3.369 6.372-5.819 1.642-2.308 2.846-5.026 3.483-7.872 1.925-8.269 4.686-16.551 7.32-24.679 1.84-5.847 3.964-11.567 6.074-17.57-5.72-1.983-11.412-3.54-16.863-5.82-14.598-6.159-29.21-12.586-43.807-18.887-7.009-2.945-14.159-5.31-20.898-8.693-11.752-5.806-19.653-15.943-27.836-25.797-3.497-4.163-7.419-7.887-10.761-11.341-7.051 6.682-12.686 14.045-20.077 18.477-11.582 7.079-22.002 14.994-30.384 25.683-4.262 5.494-10.435 7.476-17.529 7.377-5.805 0-10.548-3.002-15.433-5.565q-4.587-2.435-7.164 2.308c-2.577 4.743-5.578 9.203-8.736 13.536-1.232 1.869-3.171 3.341-5.281 4.092s-4.517.821-6.655.17c-6.697-1.671-13.266-3.64-19.963-5.593-9.133-2.747-18.888-2.081-27.426 1.954-6.3 2.704-7.773 6.57-3.525 11.837 3.072 3.893 6.839 7.334 10.874 10.208 4.899 3.426 9.925 6.414 15.234 8.976 6.74 3.37 12.248 8.623 15.674 15.334 2.081 4.05 3.88 8.255 5.833 12.46 33.486-14.994 62.907.708 75.82 19.369 7.334 10.435 11.2 23.092 10.803 35.849s-4.757 25.188-12.587 35.298c-14.413 18.632-43.127 31.375-75.664 16.027l.156.283zm29.649-3.427c27.453-.679 49.144-22.88 48.479-49.923-.326-13.167-5.734-25.783-15.164-34.887-9.43-9.118-22.158-14.187-35.467-13.988-6.513.155-12.998 1.316-19.171 3.879a49.8 49.8 0 0 0-16.155 11.016c-4.56 4.644-8.24 10.264-10.648 16.409s-3.51 12.545-3.497 19.214a49.6 49.6 0 0 0 4.29 19.014c2.69 6.032 6.513 11.455 11.299 15.872 4.785 4.559 10.392 7.957 16.537 10.35 6.145 2.251 12.686 3.37 19.199 3.073h.283zM15.322 259.021l68.132-39.785-3.71-6.995-68.429 39.219 3.866 7.547h.141zM372.786 304.159c-1.232 7.674-1.741 15.617-3.667 23.319-2.464 9.401-11.03 12.177-19.1 6.556-12.828-9.034-18.52-21.635-16.495-36.983.595-4.545 4.319-8.891 7.193-12.785 4.247-5.918 8.92-11.553 13.748-17.047 1.784-2.025 4.021-3.497 6.4-4.403.566-.156 1.26-.312 1.982-.184.708-.014 1.274.254 1.855.665.58.411 1.005.821 1.302 1.388.297.566.595 1.26.609 1.826 2.152 12.417 4.007 24.834 6.032 37.662h.141zm-15.022 22.455c5.946-5.536 4.148-38.624 1.444-44.925-2.35 2.039-5.267 4.517-8.184 6.711-7.079 5.55-9.458 12.559-6.838 21.125.934 3.653 2.718 7.008 5.054 9.925s5.239 5.395 8.68 7.15h-.142z"/><path fill="#102185" d="M198.479 139.777c-.864-.821-2.875-1.911-3.625-3.455a208 208 0 0 1-4.998-12.912c-1.529-4.361-4.134-6.98-8.821-7.434-1.274.029-2.563-.368-3.709-.906-1.586-1.09-3.611-2.605-3.781-4.148-.028-.991.099-1.982.496-2.846.41-.864.948-1.727 1.784-2.308 7.249-4.573 9.642-11.143 9.43-19.355-.199-8.212 1.571-5.28 3.114-5.748 1.968-.75 4.829.453 6.981 1.387 1.288.68 2.038 2.492 2.789 4.036 3.115 5.734 7.051 10.307 14.159 11.27 2.845.354 5.564 1.416 6.343 4.658s-1.147 5.409-3.356 7.306c-7.49 6.272-11.695 14.173-11.157 24.211.085 3.257-1.288 5.409-5.791 6.23h.142zm-9.005-32.352 1.529-1.317 7.278 8.028 5.465-7.929-9.671-7.405c-1.486 3.016-2.973 5.876-4.46 8.75l-.141-.141zM216.984 229.402l.156 6.371c.071 3.115-.566 5.819-4.092 6.329-2.959.495-5.281-1.572-6.074-5.239-.17-1.133-.057-2.265-.227-3.398-.028-1.133-.042-1.982-.353-3.101-3.568-.906-7.816-1.076-7.802-6.329-.071-2.831 1.883-4.007 6.966-4.842l-.17-6.796c.184-3.823 1.968-6.145 4.942-6.216 2.973-.07 4.87 2.011 5.252 5.961.199 2.124.1 4.248.17 6.655 3.965-.099 7.49-.467 8.311 4.049.638 3.101-1.444 4.856-7.206 6.556h.141zM128.521 99.581c3.398.198 6.527.552 6.909 4.361.383 4.234-2.987 5.168-6.074 6.102-.099 1.558.085 3.399-.594 4.545-1.091 1.586-2.889 3.611-4.432 3.795a5.84 5.84 0 0 1-2.718-1.062c-.864-.552-1.445-1.373-1.898-2.223-1.062-2.945-1.416-5.635-4.715-7.532-3.015-1.629-2.265-5.607.666-7.66.977-.736 2.223-1.472 2.492-2.464.779-2.704 2.152-4.445 4.984-4.375 3.115-.07 4.446 2.294 4.941 4.97 0 .425.312.977.467 1.685v-.142zM134.312 225.069c-4.956.127-9.925-.609-14.499-2.337a36 36 0 0 1-12.516-7.758 39.8 39.8 0 0 1-8.65-11.964c-2.096-4.475-3.2-9.416-3.328-14.357-.524-20.955 16.75-38.795 38.257-39.333s38.2 15.348 38.851 36.43c.127 5.097-.736 10.081-2.605 14.796s-4.588 9.033-8.184 12.672-7.773 6.569-12.389 8.665a40.9 40.9 0 0 1-14.796 3.2h-.141zm6.64-12.064c-1.288-.538-2.577-.934-3.723-1.472-5.437-2.421-7.547-7.462-4.56-12.629.963-1.445 1.473-3.299 1.431-4.998-.043-1.841-.51-3.526-1.544-5.055-2.209-3.483-3.299-7.419-3.398-11.525s1.076-8.099 3.115-11.554c1.09-2.01 2.025-4.021 3.384-6.456-6.669-.255-13.267 1.883-18.548 5.848-.977.453-1.671 1.316-2.067 2.463-.397 1.006-.51 2.138-.071 3.115.496 2.676 1.26 5.21 2.181 7.731 4.049 9.104 3.284 18.335.254 27.326-.92 2.718-.184 4.106 2.266 5.465 6.881 3.511 13.847 4.616 21.422 1.741zm11.61-5.805c13.862-11.949 12.488-33.598-2.619-43.127-1.005-.679-2.86-1.203-3.695-.764-5.154 3.242-8.156 13.946-5.041 19.666 3.271 6.428 4.984 12.63 1.189 19.369l10.181 4.842zm-45.378-25.23-1.699.042 1.529 16.254 1.557-.042a21.1 21.1 0 0 0 1.062-8.382c-.212-2.832-1.132-5.493-2.463-7.872z"/></svg>
